X:835
T:Flags of Dublin, The
R:reel
Z:transcribed by Dave Marshall
M:C|
K:D
|: ADFA B2dB | ADFA B~E3 | ADFA Bcde | f2ef d2dB |
ADFA B2dB | ADFA B~E3 | ADFA Bcde | fedc d4 :|
|: d3f e3g | fdec dcBA | dcdf efge | fdBc d4 |
d3f e3g | ~f3e dcBA | G~B3 Bcde | fedc d4 :|
